icons/general-share-1-filled.svg

<svg viewBox="0 0 24 24"><path fill="currentColor" fill-rule="evenodd" d="M2.4 18a3.6 3.6 0 0 0 3.6 3.6h12a3.6 3.6 0 0 0 3.6-3.6v-12a3.6 3.6 0 0 0-3.6-3.6h-12a3.6 3.6 0 0 0-3.6 3.6zm9.7-3.5a1 1 0 0 1-1-1v-6l-2 2a1 1 0 1 1-1.4-1.5l3.7-3.5a1 1 0 0 1 1.4 0l3.7 3.5a1 1 0 0 1-1.4 1.5l-2-2v6a1 1 0 0 1-1 1Zm-6.1 1.5a1 1 0 1 0-2 0v2a2 2 0 0 0 2 2h12a2 2 0 0 0 2-2v-2a1 1 0 1 0-2 0v2h-12z" clip-rule="evenodd"/></svg>

<svg viewBox="0 0 24 24"><path fill="currentColor" fill-rule="evenodd" d="M2.4 18A3.6 3.6 0 0 0 6 21.6h12a3.6 3.6 0 0 0 3.6-3.6V6A3.6 3.6 0 0 0 18 2.4H6A3.6 3.6 0 0 0 2.4 6zm9.7-3.5a1 1 0 0 1-1-1v-6l-2 2A1 1 0 1 1 7.7 8l3.7-3.5a1 1 0 0 1 1.4 0L16.5 8A1 1 0 0 1 15 9.5l-2-2v6a1 1 0 0 1-1 1M6 16a1 1 0 1 0-2 0v2a2 2 0 0 0 2 2h12a2 2 0 0 0 2-2v-2a1 1 0 1 0-2 0v2H6z" clip-rule="evenodd"/></svg>
